X:99
T:Sourwood Mountain
A:William Marion Reece 
M:C|
L:1/8
R:Reel
K: A
Q:120
|:"A"e3ee2e2|fef2e2c2| e3e e2 e2| fe f2 e4|
w:Chick-ens crowin on So-ur-wood Moun-tain. Hi di hi and di-dle oh day.
w:My true loves a black* eyed dai-sy Hi di hi and di-dle oh day.
w:Sar-ra, Sar-ra, let's* go walk-in'. Hi di hi and di-dle oh day.
|e3ee2e2|fef2e2c2|A3AA2f2|ecB2A4:|
w:So many pretty girls I* can't count 'em, Hi di hi and di-dle oh day.
w:If I don’t get her* I’ll go crazy, Hi di hi and di-dle oh day.
w:Kiss me quick and st-op your talk-in', Hi di hi and di-dle oh day.
|:A3AA2A2|c2A2F2E2|A3AA2A2|cBc2 e4|
w:Hey, old man I want your daugh-ter, Hi di hi and di-dle oh day.
w:Big girls love, the little ones spite you, Hi di hi and di-dle oh day.
w:My* true love is over the holler, Hi di hi and di-dle oh day.
|A3AA2A2|c2A2F2E2|A3AA2f2|ecB2A4:|
w:Bake my bread and carry my wa-ter, Hi di hi and di-dle oh day.
w:Big dogs bark and little dogs bite you, Hi di hi and di-dle oh day.
w:She won’t come and I won’t call her, Hi di hi and di-dle oh day.

